src/main/web/img/photos_s.svg

<svg width="16" height="15" xmlns="http://www.w3.org/2000/svg" style="fill-rule:evenodd;clip-rule:evenodd"><path style="fill:url(#a)" d="M3 0h13v12H3z"/><path d="M16 0H3v12h13V0zm-1 1v10H4V1h11z" style="fill-opacity:.4"/><path style="fill:url(#b)" d="M5 2h9v8H5z"/><path style="fill:url(#c)" d="M0 3h13v12H0z"/><path d="M13 3H0v12h13V3zm-1 1v10H1V4h11z" style="fill-opacity:.4"/><path style="fill:url(#d)" d="M2 5h9v8H2z"/><path d="m3 13 3.998-5.571L10.548 13H3z" style="fill:#7c7c7c"/><path d="m3.96 11.663 3.038-4.234 2.445 3.837L6.5 10.214l-2.54 1.449z" style="fill:#f7f7f7"/><defs><radialGradient id="b" cx="0" cy="0" r="1" gradientUnits="userSpaceOnUse" gradientTransform="matrix(-5 -7 7 -5 10 9)"><stop offset="0" style="stop-color:#93b7d7"/><stop offset="1" style="stop-color:#6c9ac2"/></radialGradient><radialGradient id="d" cx="0" cy="0" r="1" gradientUnits="userSpaceOnUse" gradientTransform="matrix(-5 -7 7 -5 7 12)"><stop offset="0" style="stop-color:#93b7d7"/><stop offset="1" style="stop-color:#6c9ac2"/></radialGradient><linearGradient id="a" x1="0" y1="0" x2="1" y2="0" gradientUnits="userSpaceOnUse" gradientTransform="matrix(9 8 -8 9 5 2)"><stop offset="0" style="stop-color:#fefefe"/><stop offset="1" style="stop-color:#dfdfdf"/></linearGradient><linearGradient id="c" x1="0" y1="0" x2="1" y2="0" gradientUnits="userSpaceOnUse" gradientTransform="matrix(9 8 -8 9 2 5)"><stop offset="0" style="stop-color:#fefefe"/><stop offset="1" style="stop-color:#dfdfdf"/></linearGradient></defs></svg>

<?xml version="1.0" encoding="UTF-8" standalone="no"?>
<!DOCTYPE svg PUBLIC "-//W3C//DTD SVG 1.1//EN" "http://www.w3.org/Graphics/SVG/1.1/DTD/svg11.dtd">
<svg width="16px" height="16px" version="1.1" xmlns="http://www.w3.org/2000/svg" xmlns:xlink="http://www.w3.org/1999/xlink" xml:space="preserve" xmlns:serif="http://www.serif.com/" style="fill-rule:evenodd;clip-rule:evenodd;stroke-linejoin:round;stroke-miterlimit:2;">
    <rect x="3" y="0" width="13" height="12" style="fill:url(#_Linear1);"/>
    <path d="M16,0L3,0L3,12L16,12L16,0ZM15,1L15,11C15,11 4,11 4,11C4,11 4,1 4,1L15,1Z" style="fill-opacity:0.4;"/>
    <rect x="5" y="2" width="9" height="8" style="fill:url(#_Radial2);"/>
    <rect x="0" y="3" width="13" height="12" style="fill:url(#_Linear3);"/>
    <path d="M13,3L0,3L0,15L13,15L13,3ZM12,4L12,14C12,14 1,14 1,14C1,14 1,4 1,4L12,4Z" style="fill-opacity:0.4;"/>
    <rect x="2" y="5" width="9" height="8" style="fill:url(#_Radial4);"/>
    <path d="M3,13L6.998,7.429L10.548,13L3,13Z" style="fill:#7c7c7c;"/>
    <path d="M3.96,11.663L6.998,7.429L9.443,11.266L6.5,10.214L3.96,11.663Z" style="fill:#f7f7f7;"/>
    <defs>
        <linearGradient id="_Linear1" x1="0" y1="0" x2="1" y2="0" gradientUnits="userSpaceOnUse" gradientTransform="matrix(9,8,-8,9,5,2)"><stop offset="0" style="stop-color:#fefefe;stop-opacity:1"/><stop offset="1" style="stop-color:#dfdfdf;stop-opacity:1"/></linearGradient>
        <radialGradient id="_Radial2" cx="0" cy="0" r="1" gradientUnits="userSpaceOnUse" gradientTransform="matrix(-5,-7,7,-5,10,9)"><stop offset="0" style="stop-color:#93b7d7;stop-opacity:1"/><stop offset="1" style="stop-color:#6c9ac2;stop-opacity:1"/></radialGradient>
        <linearGradient id="_Linear3" x1="0" y1="0" x2="1" y2="0" gradientUnits="userSpaceOnUse" gradientTransform="matrix(9,8,-8,9,2,5)"><stop offset="0" style="stop-color:#fefefe;stop-opacity:1"/><stop offset="1" style="stop-color:#dfdfdf;stop-opacity:1"/></linearGradient>
        <radialGradient id="_Radial4" cx="0" cy="0" r="1" gradientUnits="userSpaceOnUse" gradientTransform="matrix(-5,-7,7,-5,7,12)"><stop offset="0" style="stop-color:#93b7d7;stop-opacity:1"/><stop offset="1" style="stop-color:#6c9ac2;stop-opacity:1"/></radialGradient>
    </defs>
</svg>
